src/assets/graphics/google-play.svg

<?xml version="1.0" encoding="UTF-8"?>
<svg width="152px" height="45px" viewBox="0 0 152 45" version="1.1" xmlns="http://www.w3.org/2000/svg"
     xmlns:xlink="http://www.w3.org/1999/xlink">
  <!-- Generator: Sketch 51.3 (57544) - http://www.bohemiancoding.com/sketch -->
  <title>Rectangle 1 + Fill 1 + google play</title>
  <desc>Created with Sketch.</desc>
  <defs></defs>
  <g id="Page-1" stroke="none" stroke-width="1" fill="none" fill-rule="evenodd">
    <g id="01.Tutorial-Copy-10" transform="translate(-972.000000, -1054.000000)">
      <g id="Rectangle-1-+-Fill-1-+-google-play" transform="translate(972.000000, 1054.000000)">
        <g id="Group-15">
          <rect id="Rectangle-1" stroke="#203040" stroke-width="2" x="1" y="1" width="150" height="42.1860465"
                rx="8"></rect>
          <path
            d="M100.666891,26.4487899 L99.6529535,27.4168282 C99.4186298,27.5471288 99.1855625,27.6984046 98.9531233,27.8058232 C98.2488957,28.1293501 97.5327319,28.2107085 96.8963513,28.2107085 C96.2191368,28.2107085 95.1574555,28.1662156 94.0744149,27.3736065 C92.5698428,26.3013278 91.912103,24.4580507 91.912103,22.8518572 C91.912103,19.5263312 94.5876656,17.8953488 96.7700804,17.8953488 C97.5327319,17.8953488 98.3161145,18.0885751 98.9531233,18.4960029 C100.012292,19.2047111 100.286193,20.1257141 100.438221,20.6189496 L95.4546006,22.6560885 L93.8225012,22.7844823 C94.350829,25.5112611 96.1739055,27.0971149 98.1885871,27.0971149 C99.1949857,27.0971149 99.9419319,26.7646895 100.627313,26.4220942 C100.627313,26.4220942 100.764892,26.3496343 100.666891,26.4487899 L100.666891,26.4487899 Z M97.6602593,21.0251061 L93.8011419,22.7196498 C93.7797826,22.3344684 93.7370641,21.9492871 93.7370641,21.5876234 C93.7370641,19.2701793 95.3270732,18.6027859 96.1739055,18.6027859 C97.3172546,18.6027859 98.2752806,19.5924349 98.2752806,20.449241 C98.2752806,20.747979 98.064829,20.8763727 97.6602593,21.0251061 Z M90.2467082,26.282895 C90.2467082,27.1161833 90.3937102,27.2458483 91.0903993,27.3113164 C91.4535069,27.3545381 91.815358,27.3736065 92.1734399,27.4168282 L91.3894291,27.8890885 L87.6534416,27.8890885 C88.1434483,27.2458483 88.227629,27.1816514 88.227629,26.7532484 L88.227629,26.274632 L88.2194622,13.5216974 L86.5697727,13.5216974 L88.1578972,12.747521 L91.1896571,12.747521 C90.5325454,13.1327023 90.3359145,13.3672434 90.2517339,14.1179021 L90.2467082,26.282895 Z M84.4526922,18.9479236 C84.9395579,19.3528089 85.9553796,20.2121574 85.9553796,21.8418685 C85.9553796,23.4302649 85.0702264,24.1790167 84.1775345,24.8877249 C83.9036333,25.166759 83.5832443,25.4693106 83.5832443,25.9371216 C83.5832443,26.4119244 83.9036333,26.6693475 84.1341878,26.8613026 L84.8999804,27.4594142 C85.8309933,28.2545658 86.6797101,28.9836136 86.6797101,30.4645914 C86.6797101,32.4820263 84.7498373,34.5166228 81.1030562,34.5166228 C78.0310906,34.5166228 76.5459932,33.0362807 76.5459932,31.4491556 C76.5459932,30.6768861 76.9260625,29.5829965 78.1799773,28.833609 C79.4942006,28.0206603 81.2745585,27.9119705 82.2281871,27.8484092 C81.9304137,27.4594142 81.5905501,27.0519864 81.5905501,26.3871355 C81.5905501,26.023565 81.6986029,25.806821 81.8028863,25.5513047 C81.5710754,25.5735511 81.3373799,25.5964332 81.1250436,25.5964332 C78.8766664,25.5964332 77.6057899,23.8993471 77.6057899,22.2270499 C77.6057899,21.2405789 78.0505653,20.1460537 78.9639881,19.3528089 C80.1726715,18.3459983 81.613794,18.172476 82.7590278,18.172476 L87.1276266,18.172476 L85.7694283,18.9479236 L84.4526922,18.9479236 Z M82.950633,28.4700385 C82.7766177,28.4471565 82.6723343,28.4471565 82.4625108,28.4471565 C82.2702774,28.4471565 81.1250436,28.4891069 80.2380057,28.7903874 C79.76873,28.9639097 78.4124164,29.4768492 78.4124164,31.000413 C78.4124164,32.5207987 79.8767828,33.6172308 82.1421218,33.6172308 C84.1775345,33.6172308 85.2580623,32.6301241 85.2580623,31.3010578 C85.2580623,30.2071682 84.5588603,29.6300318 82.950633,28.4700385 L82.950633,28.4700385 Z M83.5600004,24.3944894 C83.2245342,24.7339067 82.6528596,24.9951435 82.1213907,24.9951435 C80.3001989,24.9951435 79.4722131,22.6128668 79.4722131,21.176382 C79.4722131,20.6189496 79.5796377,20.0392707 79.9383478,19.5924349 C80.2763268,19.1608539 80.8718735,18.8818199 81.4215606,18.8818199 C83.1837003,18.8818199 84.0927257,21.2844361 84.0927257,22.8270683 C84.0927257,23.2154277 84.0500071,23.8993471 83.5600004,24.3944894 Z M71.3092029,28.1662156 C67.939464,28.1662156 66.1364904,25.5112611 66.1364904,23.1073736 C66.1364904,20.2986007 68.4030858,17.8953488 71.6270791,17.8953488 C74.7436478,17.8953488 76.6955081,20.3640688 76.6955081,22.9560977 C76.6955081,25.4877434 74.7662635,28.1662156 71.3092029,28.1662156 Z M73.9602651,26.4309928 C73.472143,27.1161833 72.625939,27.5223399 71.7966968,27.5223399 C69.2273023,27.5223399 68.1920059,24.0271053 68.1920059,21.9079723 C68.1920059,20.9825201 68.3396362,20.0392707 69.167622,19.288612 C69.6752188,18.837327 70.3794464,18.5608354 71.0786484,18.5608354 C73.7077232,18.5608354 74.5972739,22.1634886 74.5972739,24.0525298 C74.5972739,24.8877249 74.4728876,25.744531 73.9602651,26.4309928 Z M60.0271111,28.1662156 C56.656744,28.1662156 54.8569114,25.5112611 54.8569114,23.1073736 C54.8569114,20.2986007 57.124135,17.8953488 60.3468719,17.8953488 C63.461556,17.8953488 65.4115316,20.3640688 65.4115316,22.9560977 C65.4115316,25.4877434 63.4847999,28.1662156 60.0271111,28.1662156 Z M62.6788016,26.4309928 C62.189423,27.1161833 61.3444754,27.5223399 60.5171178,27.5223399 C57.9521208,27.5223399 56.912427,24.0271053 56.912427,21.9079723 C56.912427,20.9825201 57.059429,20.0392707 57.8886713,19.288612 C58.3975244,18.837327 59.0942136,18.5608354 59.7959284,18.5608354 C62.4224903,18.5608354 63.3145539,22.1634886 63.3145539,24.0525298 C63.3145539,24.8877249 63.1876547,25.744531 62.6788016,26.4309928 Z M53.5093928,27.4219131 L50.6673535,28.0804079 C49.5158376,28.2641 48.4817977,28.4255456 47.386821,28.4255456 C41.9050273,28.4255456 39.8162164,24.3430048 39.8162164,21.1477794 C39.8162164,17.2457526 42.7757316,13.6278447 47.8441607,13.6278447 C48.9165216,13.6278447 49.9480487,13.7873835 50.8878566,14.0467135 C52.3773515,14.4700316 53.0740406,14.9918697 53.5093928,15.2975994 L51.8584469,16.8840889 L51.162386,17.0417209 L51.6586749,16.2414844 C50.9864861,15.5772691 49.7507896,14.351172 47.4056674,14.351172 C44.2702523,14.351172 41.9050273,16.7626869 41.9050273,20.283346 C41.9050273,24.0646064 44.6057185,27.6214955 48.9372527,27.6214955 C50.2100139,27.6214955 50.8652409,27.3628011 51.4601593,27.1212682 L51.4601593,23.8796431 L48.459182,24.0429956 L50.0498193,23.1785622 L54.2613647,23.1785622 L53.7462294,23.6800607 C53.6073941,23.7995559 53.5885477,23.8402351 53.5495985,24.0004095 C53.5288674,24.183466 53.5093928,24.7656873 53.5093928,24.9703546 L53.5093928,27.4219131 Z M106.777526,26.5403182 L106.777526,32.0034099 L105.705165,32.0034099 L105.705165,18.101923 L106.777526,18.101923 L106.777526,19.6852344 C107.4761,18.6618978 108.752631,17.8508559 110.235215,17.8508559 C112.894444,17.8508559 114.685482,19.8918086 114.685482,23.1226283 C114.685482,26.3318372 112.894444,28.4153758 110.235215,28.4153758 C108.835555,28.4153758 107.58164,27.6850568 106.777526,26.5403182 Z M113.533338,23.1226283 C113.533338,25.5614745 112.278795,27.4346253 110.05429,27.4346253 C108.672847,27.4346253 107.351714,26.2962428 106.777526,25.3364676 L106.777526,20.8865425 C107.351714,19.9286741 108.672847,18.8303352 110.05429,18.8303352 C112.278795,18.8303352 113.533338,20.6875957 113.533338,23.1226283 Z M116.149848,14.2634575 L117.221581,14.2634575 L117.221581,28.1649444 L116.149848,28.1649444 L116.149848,14.2634575 Z M129.254388,31.1046535 C129.483686,31.2082584 129.875063,31.2718196 130.123208,31.2718196 C130.779063,31.2718196 131.235775,31.000413 131.645998,30.0419089 L132.428124,28.2488453 L128.204015,18.101923 L129.400134,18.101923 L133.023671,26.8949901 L136.612028,18.101923 L137.825109,18.101923 L132.673128,30.3781481 C132.138518,31.6430175 131.29734,32.2512989 130.142054,32.2512989 C129.79528,32.2512989 129.337941,32.1890089 129.070322,32.1057436 L129.254388,31.1046535 Z M126.122114,28.1350706 C126.050498,27.7861192 125.996471,27.4784826 125.956894,27.221695 C125.924227,26.9655431 125.90538,26.7036706 125.90538,26.4373489 C125.537875,26.9833403 125.017086,27.4378034 124.351808,27.7956534 C123.685901,28.1560458 123.05329,28.3327462 122.185726,28.3327462 C121.141007,28.3327462 120.329983,28.0727805 119.751398,27.5452219 C119.174698,27.018299 118.884463,26.3045058 118.884463,25.4013001 C118.884463,24.4993655 119.304738,23.7671396 120.142775,23.2071648 C120.980812,22.6446475 122.063853,22.3649779 123.404461,22.3649779 L125.90538,22.3649779 L125.90538,21.1147275 C125.90538,20.3945783 125.66289,19.8282473 125.178537,19.4176414 C124.6923,19.0064 124.010059,18.7985546 123.125534,18.7985546 C122.317023,18.7985546 121.661168,18.9886028 121.161738,19.3585294 C120.666705,19.7360834 120.417305,20.2038944 120.417305,20.767683 L119.319815,20.767683 L119.297199,20.7136559 C119.257622,19.953463 119.601255,19.2867052 120.331868,18.71084 C121.059339,18.1356105 122.012339,17.8464067 123.185215,17.8464067 C124.354321,17.8464067 125.300411,18.1311612 126.013433,18.699399 C126.725828,19.2619163 127.083281,20.074865 127.083281,21.1376096 L127.083281,26.1017453 C127.083281,26.4583241 127.100243,26.8028262 127.144218,27.1384298 C127.189449,27.4746689 127.261694,27.8102725 127.357811,28.1350706 L126.122114,28.1350706 Z M122.317023,27.3443683 C123.227933,27.3443683 123.882532,27.1384298 124.55158,26.731002 C125.21623,26.3261166 125.668544,25.7979224 125.90538,25.158496 L125.90538,23.2262332 L123.392525,23.2262332 C122.432614,23.2262332 121.637924,23.4410703 121.012851,23.8745582 C120.386522,24.3067749 120.069274,24.8298842 120.069274,25.4381656 C120.069274,26.0121239 120.270303,26.4710364 120.669847,26.8187165 C121.070647,27.1702104 121.618449,27.3443683 122.317023,27.3443683 L122.317023,27.3443683 Z"
            id="Fill-1" fill="#203040"></path>
          <path
            d="M13.8255886,31.9598335 C13.4804584,31.8668695 13.255814,31.5242166 13.255814,30.9939767 L13.255814,13.4915376 C13.255814,13.0004547 13.4460237,12.669255 13.7475428,12.5488372 L13.7475428,12.5488372 L22.3486017,22.3026978 L13.8255886,31.9598335 L13.8255886,31.9598335 Z M15.0095861,31.5883128 L25.3625466,25.7206024 L22.8409359,22.8610197 L15.0095861,31.5883128 L15.0095861,31.5883128 Z M25.433838,18.8069217 L15.2251572,13.0196394 L22.8558634,21.7279368 L25.433838,18.8069217 L25.433838,18.8069217 Z M26.1264887,19.1995841 L30.1256877,21.4667227 C30.8828881,21.8959782 30.8898127,22.5879335 30.1256877,23.0210139 L26.0253128,25.3449687 L23.3508255,22.2927963 L26.1264887,19.1995841 L26.1264887,19.1995841 Z"
            id="google-play" fill="#203040"></path>
        </g>
      </g>
    </g>
  </g>
</svg>

<svg width="152" height="45" xmlns="http://www.w3.org/2000/svg"><g fill="none" fill-rule="evenodd"><rect stroke="#203040" stroke-width="2" x="1" y="1" width="150" height="42.186" rx="8"/><path d="M100.667 26.449l-1.014.968c-.234.13-.467.281-.7.389-.704.323-1.42.405-2.057.405-.677 0-1.739-.045-2.822-.837-1.504-1.073-2.162-2.916-2.162-4.522 0-3.326 2.676-4.957 4.858-4.957.763 0 1.546.194 2.183.601 1.06.709 1.333 1.63 1.485 2.123l-4.983 2.037-1.632.128c.528 2.727 2.35 4.313 4.366 4.313 1.006 0 1.753-.332 2.438-.675 0 0 .138-.072.04.027zm-3.007-5.424l-3.859 1.695c-.021-.386-.064-.77-.064-1.132 0-2.318 1.59-2.985 2.437-2.985 1.143 0 2.101.99 2.101 1.846 0 .299-.21.427-.615.576zm-7.413 5.258c0 .833.147.963.843 1.028.364.044.725.063 1.083.106l-.784.472h-3.736c.49-.643.575-.707.575-1.136v-.478l-.009-12.753h-1.65l1.589-.774h3.032c-.657.385-.854.62-.938 1.37l-.005 12.165zm-5.794-7.335c.487.405 1.502 1.264 1.502 2.894 0 1.588-.885 2.337-1.777 3.046-.274.279-.595.581-.595 1.05 0 .474.32.731.551.923l.766.598c.931.796 1.78 1.525 1.78 3.006 0 2.017-1.93 4.052-5.577 4.052-3.072 0-4.557-1.48-4.557-3.068 0-.772.38-1.866 1.634-2.615 1.314-.813 3.095-.922 4.048-.986-.298-.389-.637-.796-.637-1.46 0-.364.108-.581.212-.837-.232.023-.466.045-.678.045-2.248 0-3.52-1.697-3.52-3.369 0-.986.446-2.08 1.359-2.874 1.209-1.007 2.65-1.18 3.795-1.18h4.369l-1.359.775h-1.316zM82.95 28.47c-.174-.023-.279-.023-.488-.023-.193 0-1.338.042-2.225.343-.47.174-1.826.687-1.826 2.21 0 1.52 1.465 2.617 3.73 2.617 2.036 0 3.116-.987 3.116-2.316 0-1.094-.7-1.671-2.307-2.831zm.609-4.076c-.335.34-.907.601-1.439.601-1.82 0-2.649-2.382-2.649-3.819 0-.557.108-1.137.466-1.584.338-.431.934-.71 1.484-.71 1.762 0 2.67 2.402 2.67 3.945 0 .388-.042 1.072-.532 1.567zm-12.25 3.772c-3.37 0-5.174-2.655-5.174-5.059 0-2.808 2.267-5.212 5.491-5.212 3.117 0 5.069 2.47 5.069 5.061 0 2.532-1.93 5.21-5.387 5.21zm2.65-1.735c-.488.685-1.334 1.091-2.163 1.091-2.57 0-3.605-3.495-3.605-5.614 0-.925.148-1.869.976-2.62a2.937 2.937 0 0 1 1.91-.727c2.63 0 3.52 3.602 3.52 5.492 0 .835-.125 1.692-.638 2.378zm-13.933 1.735c-3.37 0-5.17-2.655-5.17-5.059 0-2.808 2.267-5.212 5.49-5.212 3.115 0 5.065 2.47 5.065 5.061 0 2.532-1.927 5.21-5.385 5.21zm2.652-1.735c-.49.685-1.335 1.091-2.162 1.091-2.565 0-3.605-3.495-3.605-5.614 0-.925.147-1.869.977-2.62a2.924 2.924 0 0 1 1.907-.727c2.626 0 3.519 3.602 3.519 5.492 0 .835-.127 1.692-.636 2.378zm-9.17.99l-2.842.66c-1.151.183-2.185.345-3.28.345-5.482 0-7.57-4.083-7.57-7.278 0-3.902 2.959-7.52 8.027-7.52 1.073 0 2.104.16 3.044.419 1.49.423 2.186.945 2.621 1.25l-1.65 1.587-.697.158.497-.8c-.673-.665-1.908-1.89-4.253-1.89-3.136 0-5.501 2.41-5.501 5.931 0 3.782 2.7 7.338 7.032 7.338 1.273 0 1.928-.258 2.523-.5V23.88l-3 .163 1.59-.864h4.211l-.515.501c-.139.12-.157.16-.196.32-.021.183-.04.766-.04.97v2.452zm53.269-.88v5.462h-1.073V18.102h1.073v1.583c.698-1.023 1.975-1.834 3.457-1.834 2.66 0 4.45 2.04 4.45 5.272 0 3.209-1.79 5.292-4.45 5.292-1.4 0-2.653-.73-3.457-1.875zm6.755-3.418c0 2.438-1.254 4.312-3.479 4.312-1.381 0-2.702-1.139-3.276-2.099v-4.45c.574-.957 1.895-2.056 3.276-2.056 2.225 0 3.48 1.858 3.48 4.293zm2.617-8.86h1.072v13.902h-1.072V14.263zm13.104 16.842c.23.103.621.167.87.167.655 0 1.112-.272 1.522-1.23l.782-1.793-4.224-10.147h1.196l3.624 8.793 3.588-8.793h1.213l-5.152 12.276c-.534 1.265-1.376 1.873-2.53 1.873-.348 0-.805-.062-1.073-.145l.184-1.001zm-3.132-2.97a18.879 18.879 0 0 1-.165-.913 6.197 6.197 0 0 1-.052-.785c-.367.546-.888 1-1.553 1.359-.666.36-1.299.537-2.166.537-1.045 0-1.856-.26-2.435-.788-.576-.527-.867-1.24-.867-2.144 0-.902.42-1.634 1.259-2.194.838-.562 1.92-.842 3.261-.842h2.501v-1.25c0-.72-.242-1.287-.726-1.697-.487-.412-1.169-.62-2.053-.62-.809 0-1.465.19-1.964.56-.495.378-.745.846-.745 1.41h-1.097l-.023-.054c-.04-.76.304-1.427 1.035-2.003.727-.575 1.68-.865 2.853-.865 1.17 0 2.115.285 2.828.853.713.563 1.07 1.376 1.07 2.439v4.964c0 .356.017.7.061 1.036.045.337.118.672.214.997h-1.236zm-3.805-.79c.91 0 1.566-.207 2.235-.614.664-.405 1.117-.933 1.353-1.573v-1.932h-2.512c-.96 0-1.755.215-2.38.649-.626.432-.944.955-.944 1.563 0 .574.201 1.033.6 1.38.402.352.95.526 1.648.526zM13.826 31.96c-.346-.093-.57-.436-.57-.966V13.492c0-.492.19-.823.492-.943l8.6 9.754-8.522 9.657zm1.184-.372l10.353-5.867-2.522-2.86-7.831 8.727zm10.424-12.781L15.225 13.02l7.63 8.708 2.579-2.921zm.692.393l4 2.267c.757.429.764 1.12 0 1.554l-4.1 2.324-2.675-3.052 2.775-3.093z" fill="#203040"/></g></svg>
